X: 73
T: No_170.krn
N: Derived from No_170.krn
%%abc-version 2.0
%%abcx-abcm2ps-target-version 5.9.1 (29 Sep 2008)
%%abc-creator hum2abc beta
%%abcx-conversion-date 2019/03/15 08:29:13
%%humdrum-veritas 1090647457
%%humdrum-veritas-data 1911547467
%%linebreak <none>
%%barnumbers 0
L: 1/8
M: 2/4
%%staves {1 2}
V: 1 clef=treble
V: 2 clef=bass
K: A
[V:1] [K:clef=treble][M:2/4]F,2F2 | 
[V:2] [K:clef=bass][M:2/4]G,,/!accent!G,, z/ G,,/!accent!G,, z/ | 
[V:1] F2F2 | 
[V:2] G,,/!accent!G,, z/ G,,/!accent!G,, z/ | 
[V:1] F2F3/E/ | 
[V:2] z4 | 
[V:1] C2CB, | 
[V:2] z4 | 
[V:1] G,C C3/B,/[K:clef=bass] | 
[V:2] z4 | 
[V:1] A,4- | 
[V:2] z4 | 
[V:1] A,2F,2 ||  
[V:2] z4 ||  
[V:1] [M:3/4]A,A, (3A,A,C C3/B,/ | 
[V:2] [M:3/4]z6 | 
[V:1] A,3/F,/ A,F, F,3/F,/ | 
[V:2] z6 | 
[V:1] F,6 |]  
[V:2] z6 |]  



